img/footer_bg_mob.svg

<svg width="314" height="214" viewBox="0 0 314 214" fill="none" xmlns="http://www.w3.org/2000/svg">
<path d="M230.223 287.779L-15.2908 221.993C-19.3229 220.92 -23.1125 219.095 -26.4428 216.622C-29.7731 214.149 -32.5787 211.076 -34.6991 207.581C-36.8196 204.085 -38.2131 200.234 -38.8002 196.249C-39.3872 192.264 -39.1561 188.223 -38.1201 184.357L5.26007 22.4598C6.64489 17.2911 9.42296 12.5931 13.3153 8.83771C17.2077 5.0823 22.0773 2.40164 27.4352 1.06492C32.7931 -0.271796 38.4507 -0.217524 43.8398 1.22229C49.2289 2.6621 54.1598 5.43677 58.1374 9.26767L149.655 97.54L272.889 66.8102C278.249 65.4813 283.907 65.5439 289.294 66.9915C294.681 68.4391 299.608 71.2209 303.579 75.0575C307.551 78.8941 310.428 83.6504 311.921 88.8489C313.414 94.0473 313.471 99.5049 312.086 104.674L268.706 266.571C266.618 274.361 261.394 280.97 254.179 284.946C246.964 288.923 238.348 289.941 230.223 287.779Z" fill="#E9D7FE"/>
</svg>

<svg width="314" height="214" fill="none" xmlns="http://www.w3.org/2000/svg"><path d="m230.223 287.779-245.514-65.786a32.91 32.91 0 0 1-11.152-5.371 31.87 31.87 0 0 1-8.256-9.041 30.402 30.402 0 0 1-4.101-11.332 29.37 29.37 0 0 1 .68-11.892L5.26 22.46a29.55 29.55 0 0 1 8.055-13.622c3.893-3.756 8.762-6.436 14.12-7.773a32.836 32.836 0 0 1 16.405.157 32.839 32.839 0 0 1 14.297 8.046l91.518 88.272 123.234-30.73a32.84 32.84 0 0 1 16.405.181 32.83 32.83 0 0 1 14.285 8.067c3.972 3.836 6.849 8.592 8.342 13.79 1.493 5.2 1.55 10.657.165 15.826l-43.38 161.897c-2.088 7.79-7.312 14.399-14.527 18.375-7.215 3.977-15.831 4.995-23.956 2.833Z" fill="#E9D7FE"/></svg>
